rospo-light/16x16/actions/stroke-cap-square.svg

<svg height="16" viewBox="0 0 16 16" width="16" xmlns="http://www.w3.org/2000/svg"><path d="m3 2v12h4v-8h2v8h4v-12zm1 1h8v10h-2v-8h-4v8h-2z" fill="#5c616c"/></svg>

<?xml version="1.0" encoding="UTF-8" standalone="no"?>
<svg xmlns="http://www.w3.org/2000/svg" width="22" height="22" viewBox="0 0 22 22">
 <defs>
  <style type="text/css" id="current-color-scheme">
   .ColorScheme-Text { color:#5c616c; } .ColorScheme-Highlight { color:#5294e2; }
  </style>
 </defs>
 <path style="fill:currentColor;opacity:1" class="ColorScheme-Text" transform="translate(3 3)" d="M 3 2 L 3 14 L 7 14 L 7 6 L 9 6 L 9 14 L 13 14 L 13 2 L 3 2 z M 4 3 L 12 3 L 12 13 L 10 13 L 10 5 L 6 5 L 6 13 L 4 13 L 4 3 z"/>
</svg>
